X:1
T:The Halcyon Days of Old England
M:6/8
L:1/8
K:C
 d| Bdd Bdd| Bdd ddB| cee edc| B3/2 A/2 G ddd| B3/2 A/2 G BdD| GGA B2 d|\
 B3/2 A/2 G BdD| GGA B2 d| B3/2 A/2 G BdD| G2 A B2 d| B3/2 A/2 G BdD|\
 G3- G2||
